!!!COM:	Bach, Johann Sebastian
!!!OMV:	Gelobet seist du, Jesu Christ
!!!OTL:	Gelobet seist du, Jesu Christ
**kern	**fb	**kern	**kern	**kern	**kern	**kern	**kern	**kern
*part8	*part8	*part7	*part6	*part5	*part4	*part3	*part2	*part1
*staff8	*	*staff7	*staff6	*staff5	*staff4	*staff3	*staff2	*staff1
*I"Continuo	*	*I"Voice	*I"Voice	*I"Voice	*I"Voice	*I"Timpani	*I"Horn in G	*I"Horn in G
*I'Cont.	*	*I'V	*I'V	*I'V	*I'V	*I'Timp.	*I'G Hn.	*I'G Hn.
*clefF4	*	*clefF4	*clefGv2	*clefG2	*clefG2	*clefF4	*clefG2	*clefG2
*Trd0c0	*	*	*	*	*	*	*	*
*k[f#]	*	*k[f#]	*k[f#]	*k[f#]	*k[f#]	*k[f#]	*k[f#]	*k[f#]
*M4/4	*	*M4/4	*M4/4	*M4/4	*M4/4	*M4/4	*M4/4	*M4/4
8GL	.	8GL	4B	4d	4g	4GG	4B	4g
8F#J	.	8F#J	.	.	.	.	.	.
=2	=2	=2	=2	=2	=2	=2	=2	=2
8EL	6	8EL	4c	4e	4g	4GG	4G	4g
8F#J	.	8F#J	.	.	.	.	.	.
4G	.	4G	4B	8dL	4g	4GG	4B	4g
.	.	.	.	8eJ	.	.	.	.
4D	8	4D	8AL	4f#	4a	4D	4d	4a
.	7	.	8dJ	.	.	.	.	.
8EL	.	8EL	4B	4e	4g	4r	8BL	4g
8DJ	.	8DJ	.	.	.	.	8dJ	.
=3	=3	=3	=3	=3	=3	=3	=3	=3
4C	.	4C	8eL	4g	4cc	1r;	4g	4cc
.	.	.	8cJ	.	.	.	.	.
4GG	nr7	4GG	4B	8gL	4dd	.	4g	4dd
.	.	.	.	8fnJ	.	.	.	.
2C;	.	2C;	2G;	2e;	2cc;	.	2g;	2cc;
=4	=4	=4	=4	=4	=4	=4	=4	=4
4E	5 3	4E	4e	8gL	8bL	2r	8gL	8bL
.	6 4	.	.	8aJ	8ccJ	.	8aJ	8ccJ
4D	6 n	4D	4fn	4b	4dd	.	4b	4dd
4C	3	4C	4g	8ccL	4ee	4r	8ccL	4ee
.	.	.	.	8bJ	.	.	8bJ	.
4FF#	6	4FF#	4d	4a	8ddL	4D	4a	8ddL
.	5	.	.	.	8ccJ	.	.	8ccJ
=5	=5	=5	=5	=5	=5	=5	=5	=5
8GGL	.	8GGL	4d	4g	4b	4D	4g	4b
8BBJ	.	8BBJ	.	.	.	.	.	.
4D	.	4D	8dL	4f#	4a	4D	4d	4a
.	.	.	8cJ	.	.	.	.	.
4GG;	.	4GG;	4B;	4d;	4g;	4GG;	4B;	4g;
4BB	.	4BB	4G	8dL	4g	4r	8dL	4g
.	.	.	.	8eJ	.	.	8dJ	.
=6	=6	=6	=6	=6	=6	=6	=6	=6
4AA	6	4AA	4A	4f#	4cc	4r	8dL	4cc
.	.	.	.	.	.	.	8d	.
8GGL	.	8GGL	8dL	4g	8bL	4GG	8d	8bL
8AAJ	.	8AAJ	8cJ	.	8ccJ	.	8dJ	8ccJ
8BBL	6	8BBL	8BL	4g	4dd	4GG	8dL	4dd
8CJ	.	8CJ	8GJ	.	.	.	8d	.
8DL	.	8DL	4d	8f#L	4a	4D	8d	4a
8CJ	.	8CJ	.	8eJ	.	.	8dJ	.
=7	=7	=7	=7	=7	=7	=7	=7	=7
!!pagebreak:original
8BBL	6	8BBL	4d	8dL	8gL	4D	8gL	8bL
8GGJ	7 5	8GGJ	.	8BJ	8f#J	.	16aL	16cc#XL
.	.	.	.	.	.	.	16bJJ	16ddJJ
4AA	#	4AA	8AL	4c#X	4e	4r	4a	4cc#
.	.	.	8GJ	.	.	.	.	.
4DD;	.	4DD;	4F#;	4A;	4d;	2r;	4a;	4dd;
8DL	.	8DL	8F#L	4A	4d	.	4a	4dd
8EJ	.	8EJ	8GJ	.	.	.	.	.
=8	=8	=8	=8	=8	=8	=8	=8	=8
8F#L	6	8F#L	8AL	4d	4a	2r	4d	4a
8GJ	.	8GJ	8BJ	.	.	.	.	.
8AL	7 #	8AL	8c#XL	4c#X	4a	.	4g	4a
8C#XJ	6 5	8C#XJ	8eJ	.	.	.	.	.
8DL	.	8DL	4d	4f#	4a	4r	4d	4a
8CnJ	.	8CnJ	.	.	.	.	.	.
4BB	6	4BB	4d	4g	4b	4D	4g	4b
=9	=9	=9	=9	=9	=9	=9	=9	=9
8AAL	.	8AAL	8eL	8aL	8ccnL	8DL	8a	8ccL
8BB	6	8BB	8d	8gJ	8bJ	8GGJ	4g	8bJ
8C	6 5	8C	8e	8gL	4a	4D	.	4a
8DJ	.	8DJ	8dJ	8f#J	.	.	8d	.
8EL	.	8EL	8dL	8eL	8gL	8GGL	8BL	8gL
8F#J	6	8F#J	8c	8aJ	8aJ	8DJ	8dJ	8aJ
4G	.	4G	8B	8dL	4b	4GG	4g	4b
.	.	.	8cJ	8eJ	.	.	.	.
=10	=10	=10	=10	=10	=10	=10	=10	=10
2D;	.	2D;	2d;	2f#;	2a;	2D;	2d;	2a;
8BBL	6	8BBL	4d	8dL	4g	4GG	8gL	8bL
8AAJ	.	8AAJ	.	8eJ	.	.	8aJ	8ccJ
4GG	7 n	4GG	4B	4fn	4g	4GG	8bL	8ddL
.	.	.	.	.	.	.	16aL	16ccL
.	.	.	.	.	.	.	16bJJ	16ddJJ
=11	=11	=11	=11	=11	=11	=11	=11	=11
8C	.	8C	4G	2e	2g	8GGL	8ccL	16eeLL
.	.	.	.	.	.	.	.	16dd
16ELL	.	16ELL	.	.	.	16GGL	8gJ	16cc
16DJJ	.	16DJJ	.	.	.	16GGJJ	.	16ddJJ
8CL	.	8CL	4c	.	.	8GGL	16gLL	16eeLL
.	.	.	.	.	.	.	16a	16ff#
8CCJ	.	8CCJ	.	.	.	8GGJ	16g	16ee
.	.	.	.	.	.	.	16aJJ	16ff#JJ
4GG;	.	4GG;	4B;	4d;	4g;	4GG;	4b;	4gg;
=||	=||	=||	=||	=||	=||	=||	=||	=||
*-	*-	*-	*-	*-	*-	*-	*-	*-
!!!system-decoration: s1,s2,s3,s4,s5,s6,s7,s8
